icons/lines/eraser.svg

<svg xmlns="http://www.w3.org/2000/svg" width="24" height="24" viewBox="0 0 24 24" fill="none" stroke="currentColor" stroke-width="2" stroke-linecap="round" stroke-linejoin="round" >
  <path d="M9 22H15C20 22 22 20 22 15V9C22 4 20 2 15 2H9C4 2 2 4 2 9V15C2 20 4 22 9 22Z"/>
  <path d="M6.98994 15.08L8.92993 17.02C9.56993 17.66 10.6299 17.66 11.2699 17.02L17.0199 11.27C17.6599 10.63 17.6599 9.57 17.0199 8.93L15.0799 6.99001C14.4399 6.35001 13.3799 6.35001 12.7399 6.99001L6.98994 12.74C6.33994 13.38 6.33994 14.43 6.98994 15.08Z"/>
  <path d="M9.31006 10.42L13.5801 14.69"/>
  </svg>

<svg xmlns="http://www.w3.org/2000/svg" width="24" height="24" viewBox="0 0 24 24" fill="none" stroke="currentColor" stroke-width="2" stroke-linecap="round" stroke-linejoin="round">
  <path d="M15 22c5 0 7-2 7-7V9c0-5-2-7-7-7H9C4 2 2 4 2 9v6c0 5 2 7 7 7z" />
  <path d="M8.93 17.02a1.666 1.666 0 0 0 2.34 0l5.75-5.75a1.666 1.666 0 0 0 0-2.34l-1.94-1.94a1.666 1.666 0 0 0-2.34 0l-5.75 5.75a1.65 1.65 0 0 0 0 2.34z" />
  <path d="m9.31 10.42 4.27 4.27" />
</svg>
